actions/24/edit-undo.svg

<?xml version="1.0" encoding="UTF-8" standalone="no"?>
<!-- Created with Inkscape (http://www.inkscape.org/) -->

<svg
   xmlns:svg="http://www.w3.org/2000/svg"
   xmlns="http://www.w3.org/2000/svg"
   xmlns:xlink="http://www.w3.org/1999/xlink"
   version="1.0"
   width="24"
   height="24"
   id="svg2">
  <defs
     id="defs4">
    <linearGradient
       id="linearGradient8662">
      <stop
         id="stop8664"
         style="stop-color:black;stop-opacity:1"
         offset="0" />
      <stop
         id="stop8666"
         style="stop-color:black;stop-opacity:0"
         offset="1" />
    </linearGradient>
    <radialGradient
       cx="24.837126"
       cy="36.421127"
       r="15.644737"
       fx="24.837126"
       fy="36.421127"
       id="radialGradient2494"
       xlink:href="#linearGradient8662"
       gradientUnits="userSpaceOnUse"
       gradientTransform="matrix(1,0,0,0.536723,0,16.87306)" />
    <linearGradient
       id="linearGradient4176">
      <stop
         id="stop4178"
         style="stop-color:#bf8407;stop-opacity:1"
         offset="0" />
      <stop
         id="stop4180"
         style="stop-color:#a87300;stop-opacity:0"
         offset="1" />
    </linearGradient>
    <linearGradient
       x1="35.998066"
       y1="31.247124"
       x2="35.998066"
       y2="36.353996"
       id="linearGradient2418"
       xlink:href="#linearGradient4176"
       gradientUnits="userSpaceOnUse"
       gradientTransform="matrix(-0.6255852,0,0,0.5831607,26.846175,0.6729125)" />
    <linearGradient
       id="linearGradient4168">
      <stop
         id="stop4170"
         style="stop-color:#f8cd70;stop-opacity:1"
         offset="0" />
      <stop
         id="stop4172"
         style="stop-color:#d99a11;stop-opacity:1"
         offset="0.7426424" />
      <stop
         id="stop4174"
         style="stop-color:#b07c0b;stop-opacity:0"
         offset="1" />
    </linearGradient>
    <linearGradient
       x1="31.270321"
       y1="10.819631"
       x2="31.270321"
       y2="36.353996"
       id="linearGradient2416"
       xlink:href="#linearGradient4168"
       gradientUnits="userSpaceOnUse"
       gradientTransform="matrix(-0.6255852,0,0,0.5831607,26.846175,0.6729125)" />
    <linearGradient
       id="linearGradient2187">
      <stop
         id="stop2189"
         style="stop-color:white;stop-opacity:1"
         offset="0" />
      <stop
         id="stop3190"
         style="stop-color:white;stop-opacity:0.67796612"
         offset="0.88305974" />
      <stop
         id="stop2191"
         style="stop-color:white;stop-opacity:0"
         offset="1" />
    </linearGradient>
    <linearGradient
       x1="41.278553"
       y1="12.95892"
       x2="16.419912"
       y2="12.95892"
       id="linearGradient2413"
       xlink:href="#linearGradient2187"
       gradientUnits="userSpaceOnUse"
       gradientTransform="matrix(0,-0.6834212,-0.7331397,0,25.730881,32.222555)" />
  </defs>
  <g
     id="layer1">
    <path
       d="m 40.481863,36.421127 a 15.644737,8.3968936 0 1 1 -31.2894745,0 15.644737,8.3968936 0 1 1 31.2894745,0 z"
       transform="matrix(0.7670311,0,0,-0.4763666,-7.0508478,37.349809)"
       id="path8660"
       style="opacity:0.14117647;fill:url(#radialGradient2494);fill-opacity:1;fill-rule:evenodd;stroke:none;stroke-width:1;marker:none;visibility:visible;display:inline;overflow:visible" />
    <path
       d="M 2.8394863,26.935187 C 27.879046,27.705624 24.524684,7.3809765 11.5,7.5 l 0,-5 L 0.4819624,11 11.5,19.5 c 0,0 0,-5 0,-5 8.797676,-0.341715 10.768603,12.281337 -8.6605137,12.435187 z"
       id="path3701"
       style="fill:url(#linearGradient2416);fill-opacity:1;fill-rule:nonzero;stroke:url(#linearGradient2418);stroke-width:0.96392483;stroke-linecap:butt;stroke-linejoin:round;stroke-miterlimit:7;stroke-opacity:1;stroke-dasharray:none;stroke-dashoffset:0;marker:none;visibility:visible;display:block;overflow:visible" />
    <path
       d="M 17.614105,21.916311 C 22.639349,19.049321 21.617509,8.2303063 10.5,8.5 l 0,-4 c 0,0 -8.4108075,6.5 -8.4108075,6.5 L 10.5,17.5 c 0,0 0,-4 0,-4 9.283593,-0.203097 9.47958,7.297247 7.114105,8.416311 z"
       id="path3703"
       style="opacity:0.4;fill:none;stroke:url(#linearGradient2413);stroke-width:0.96392483;stroke-linecap:butt;stroke-linejoin:miter;stroke-miterlimit:7;stroke-opacity:1;stroke-dasharray:none;stroke-dashoffset:0;marker:none;visibility:visible;display:block;overflow:visible" />
  </g>
</svg>

<?xml version="1.0" encoding="UTF-8" standalone="no"?>
<!-- Created with Inkscape (http://www.inkscape.org/) -->
<svg
   xmlns:dc="http://purl.org/dc/elements/1.1/"
   xmlns:cc="http://creativecommons.org/ns#"
   xmlns:rdf="http://www.w3.org/1999/02/22-rdf-syntax-ns#"
   xmlns:svg="http://www.w3.org/2000/svg"
   xmlns="http://www.w3.org/2000/svg"
   xmlns:xlink="http://www.w3.org/1999/xlink"
   xmlns:sodipodi="http://sodipodi.sourceforge.net/DTD/sodipodi-0.dtd"
   xmlns:inkscape="http://www.inkscape.org/namespaces/inkscape"
   width="24"
   height="24"
   id="svg2"
   sodipodi:version="0.32"
   inkscape:version="0.46"
   version="1.0"
   sodipodi:docname="edit-undo.svg"
   inkscape:output_extension="org.inkscape.output.svg.inkscape">
  <defs
     id="defs4">
    <linearGradient
       inkscape:collect="always"
       id="linearGradient8662">
      <stop
         style="stop-color:#000000;stop-opacity:1;"
         offset="0"
         id="stop8664" />
      <stop
         style="stop-color:#000000;stop-opacity:0;"
         offset="1"
         id="stop8666" />
    </linearGradient>
    <radialGradient
       inkscape:collect="always"
       xlink:href="#linearGradient8662"
       id="radialGradient2494"
       gradientUnits="userSpaceOnUse"
       gradientTransform="matrix(1,0,0,0.536723,0,16.87306)"
       cx="24.837126"
       cy="36.421127"
       fx="24.837126"
       fy="36.421127"
       r="15.644737" />
    <linearGradient
       id="linearGradient4176">
      <stop
         style="stop-color:#bf8407;stop-opacity:1;"
         offset="0"
         id="stop4178" />
      <stop
         style="stop-color:#a87300;stop-opacity:0;"
         offset="1"
         id="stop4180" />
    </linearGradient>
    <linearGradient
       inkscape:collect="always"
       xlink:href="#linearGradient4176"
       id="linearGradient2418"
       gradientUnits="userSpaceOnUse"
       gradientTransform="matrix(-0.6255852,0,0,0.5831607,26.846175,0.6729125)"
       x1="35.998066"
       y1="31.247124"
       x2="35.998066"
       y2="36.353996" />
    <linearGradient
       id="linearGradient4168">
      <stop
         style="stop-color:#f8cd70;stop-opacity:1;"
         offset="0"
         id="stop4170" />
      <stop
         id="stop4172"
         offset="0.7426424"
         style="stop-color:#d99a11;stop-opacity:1;" />
      <stop
         style="stop-color:#b07c0b;stop-opacity:0;"
         offset="1"
         id="stop4174" />
    </linearGradient>
    <linearGradient
       inkscape:collect="always"
       xlink:href="#linearGradient4168"
       id="linearGradient2416"
       gradientUnits="userSpaceOnUse"
       gradientTransform="matrix(-0.6255852,0,0,0.5831607,26.846175,0.6729125)"
       x1="31.270321"
       y1="10.819631"
       x2="31.270321"
       y2="36.353996" />
    <linearGradient
       id="linearGradient2187">
      <stop
         id="stop2189"
         offset="0"
         style="stop-color:#ffffff;stop-opacity:1;" />
      <stop
         style="stop-color:#ffffff;stop-opacity:0.67796612;"
         offset="0.88305974"
         id="stop3190" />
      <stop
         id="stop2191"
         offset="1"
         style="stop-color:#ffffff;stop-opacity:0;" />
    </linearGradient>
    <linearGradient
       inkscape:collect="always"
       xlink:href="#linearGradient2187"
       id="linearGradient2413"
       gradientUnits="userSpaceOnUse"
       gradientTransform="matrix(0,-0.6834212,-0.7331397,0,25.730881,32.222555)"
       x1="41.278553"
       y1="12.95892"
       x2="16.419912"
       y2="12.95892" />
  </defs>
  <sodipodi:namedview
     id="base"
     pagecolor="#ffffff"
     bordercolor="#666666"
     borderopacity="1.0"
     gridtolerance="10000"
     guidetolerance="10"
     objecttolerance="10"
     inkscape:pageopacity="0.0"
     inkscape:pageshadow="2"
     inkscape:zoom="10.375"
     inkscape:cx="12"
     inkscape:cy="12"
     inkscape:document-units="px"
     inkscape:current-layer="layer1"
     showgrid="false"
     inkscape:window-width="640"
     inkscape:window-height="720"
     inkscape:window-x="798"
     inkscape:window-y="24" />
  <metadata
     id="metadata7">
    <rdf:RDF>
      <cc:Work
         rdf:about="">
        <dc:format>image/svg+xml</dc:format>
        <dc:type
           rdf:resource="http://purl.org/dc/dcmitype/StillImage" />
      </cc:Work>
    </rdf:RDF>
  </metadata>
  <g
     inkscape:label="Layer 1"
     inkscape:groupmode="layer"
     id="layer1">
    <path
       transform="matrix(0.7670311,0,0,-0.4763666,-7.0508478,37.349809)"
       d="M 40.481863,36.421127 A 15.644737,8.3968935 0 1 1 9.1923885,36.421127 A 15.644737,8.3968935 0 1 1 40.481863,36.421127 z"
       sodipodi:ry="8.3968935"
       sodipodi:rx="15.644737"
       sodipodi:cy="36.421127"
       sodipodi:cx="24.837126"
       id="path8660"
       style="opacity:0.14117647000000000;fill:url(#radialGradient2494);fill-opacity:1;fill-rule:evenodd;stroke:none;stroke-width:1;stroke-linecap:butt;stroke-linejoin:miter;marker:none;marker-start:none;marker-mid:none;marker-end:none;stroke-miterlimit:10;stroke-dasharray:none;stroke-dashoffset:0;stroke-opacity:1;visibility:visible;display:inline;overflow:visible"
       sodipodi:type="arc" />
    <path
       style="fill:url(#linearGradient2416);fill-opacity:1;fill-rule:nonzero;stroke:url(#linearGradient2418);stroke-width:0.96392482999999995;stroke-linecap:butt;stroke-linejoin:round;marker:none;marker-start:none;marker-mid:none;marker-end:none;stroke-miterlimit:7;stroke-dasharray:none;stroke-dashoffset:0;stroke-opacity:1;visibility:visible;display:block;overflow:visible"
       d="M 2.8394863,26.935187 C 27.879046,27.705624 24.524684,7.3809765 11.5,7.5 L 11.5,2.5 L 0.4819624,11 L 11.5,19.5 C 11.5,19.5 11.5,14.5 11.5,14.5 C 20.297676,14.158285 22.268603,26.781337 2.8394863,26.935187 z"
       id="path3701"
       sodipodi:nodetypes="ccccccc" />
    <path
       sodipodi:nodetypes="ccccccc"
       id="path3703"
       d="M 17.614105,21.916311 C 22.639349,19.049321 21.617509,8.2303063 10.5,8.5 L 10.5,4.5 C 10.5,4.5 2.0891925,11 2.0891925,11 L 10.5,17.5 C 10.5,17.5 10.5,13.5 10.5,13.5 C 19.783593,13.296903 19.97958,20.797247 17.614105,21.916311 z"
       style="opacity:0.40000000000000002;fill:none;fill-opacity:1;fill-rule:nonzero;stroke:url(#linearGradient2413);stroke-width:0.96392482999999995;stroke-linecap:butt;stroke-linejoin:miter;marker:none;marker-start:none;marker-mid:none;marker-end:none;stroke-miterlimit:7;stroke-dasharray:none;stroke-dashoffset:0;stroke-opacity:1;visibility:visible;display:block;overflow:visible" />
  </g>
</svg>
